dataset/xterm/icon.svg

<?xml version="1.0" encoding="UTF-8" standalone="no"?>
<svg
   height="128px"
   viewBox="0 0 128 128"
   width="128px"
   version="1.1"
   id="svg36"
   xml:space="preserve"
   xmlns="http://www.w3.org/2000/svg"
   xmlns:svg="http://www.w3.org/2000/svg"><defs
     id="defs40" /><linearGradient
     id="a"
     gradientUnits="userSpaceOnUse"
     x1="11.999989"
     x2="115.999989"
     y1="64"
     y2="64"><stop
       offset="0"
       stop-color="#3d3846"
       id="stop2" /><stop
       offset="0.05"
       stop-color="#77767b"
       id="stop4" /><stop
       offset="0.1"
       stop-color="#5e5c64"
       id="stop6" /><stop
       offset="0.899999"
       stop-color="#504e56"
       id="stop8" /><stop
       offset="0.95"
       stop-color="#77767b"
       id="stop10" /><stop
       offset="1"
       stop-color="#3d3846"
       id="stop12" /></linearGradient><linearGradient
     id="b"
     gradientUnits="userSpaceOnUse"
     x1="12"
     x2="112.041023"
     y1="60"
     y2="80.988281"><stop
       offset="0"
       stop-color="#77767b"
       id="stop15" /><stop
       offset="0.384443"
       stop-color="#9a9996"
       id="stop17" /><stop
       offset="0.720567"
       stop-color="#77767b"
       id="stop19" /><stop
       offset="1"
       stop-color="#68666f"
       id="stop21" /></linearGradient><path
     d="m 20 22 h 88 c 4.417969 0 8 3.582031 8 8 v 78 c 0 4.417969 -3.582031 8 -8 8 h -88 c -4.417969 0 -8 -3.582031 -8 -8 v -78 c 0 -4.417969 3.582031 -8 8 -8 z m 0 0"
     fill="url(#a)"
     id="path24" /><path
     d="m 20 12 h 88 c 4.417969 0 8 3.582031 8 8 v 80 c 0 4.417969 -3.582031 8 -8 8 h -88 c -4.417969 0 -8 -3.582031 -8 -8 v -80 c 0 -4.417969 3.582031 -8 8 -8 z m 0 0"
     fill="url(#b)"
     id="path26" /><path
     d="m 20 14 h 88 c 3.3125 0 6 2.6875 6 6 v 80 c 0 3.3125 -2.6875 6 -6 6 h -88 c -3.3125 0 -6 -2.6875 -6 -6 v -80 c 0 -3.3125 2.6875 -6 6 -6 z m 0 0"
     fill="#241f31"
     id="path28" /><path
     id="path8"
     style="font-size:43.4473px;line-height:1.25;font-family:'DejaVu Serif';-inkscape-font-specification:'DejaVu Serif';baseline-shift:baseline;display:inline;overflow:visible;vector-effect:none;fill:#ff5e00;enable-background:accumulate;stop-color:#000000"
     d="M 22.121094 22.007812 L 22.121094 25.095703 L 25.78125 25.095703 L 34.896484 38.279297 L 25.914062 50.925781 L 21.992188 50.925781 L 21.992188 53.992188 L 33.542969 53.992188 L 33.542969 50.925781 L 29.773438 50.925781 L 36.808594 41.005859 L 43.667969 50.925781 L 40.210938 50.925781 L 40.210938 53.992188 L 53.876953 53.992188 L 53.876953 50.925781 L 50.216797 50.925781 L 40.349609 36.658203 L 48.572266 25.095703 L 52.410156 25.095703 L 52.410156 22.007812 L 40.966797 22.007812 L 40.966797 25.095703 L 44.712891 25.095703 L 38.458984 33.929688 L 32.373047 25.095703 L 35.787109 25.095703 L 35.787109 22.007812 L 22.121094 22.007812 z " /><path
     id="path7"
     style="font-size:38.3357px;line-height:1.25;font-family:'URW Bookman L';-inkscape-font-specification:'URW Bookman L';baseline-shift:baseline;display:inline;overflow:visible;vector-effect:none;fill:#0000f1;enable-background:accumulate;stop-color:#000000"
     d="M 25.507812 26.572266 L 22.996094 32.910156 L 24.765625 33.488281 L 24.871094 33.341797 C 27.406632 29.793008 30.202282 28.271484 34.089844 28.271484 C 34.769262 28.271484 35.17075 28.358645 35.392578 28.521484 C 35.614408 28.684322 35.724609 28.960341 35.724609 29.453125 L 35.724609 45.265625 C 35.703259 46.683685 35.541824 47.561321 35.166016 48.068359 C 34.78998 48.575707 34.204339 48.775725 33.126953 48.859375 L 31.287109 48.976562 L 31.287109 50.421875 L 44.912109 50.421875 L 44.912109 48.976562 L 43.025391 48.859375 C 41.952885 48.758448 41.363216 48.555206 40.994141 48.054688 C 40.623809 47.552466 40.474609 46.685001 40.474609 45.265625 L 40.474609 29.591797 C 40.474609 29.003876 40.569603 28.677985 40.753906 28.513672 C 40.938199 28.349358 41.277653 28.271484 41.9375 28.271484 C 45.641735 28.271484 48.795777 29.971463 51.113281 33.339844 L 51.212891 33.484375 L 53.162109 32.916016 L 50.648438 26.572266 L 25.507812 26.572266 z " /></svg>

<svg xmlns="http://www.w3.org/2000/svg" xml:space="preserve" width="128" height="128" viewBox="0 0 128 128"><linearGradient id="a" x1="12" x2="116" y1="64" y2="64" gradientUnits="userSpaceOnUse"><stop offset="0" stop-color="#3d3846"/><stop offset=".05" stop-color="#77767b"/><stop offset=".1" stop-color="#5e5c64"/><stop offset=".9" stop-color="#504e56"/><stop offset=".95" stop-color="#77767b"/><stop offset="1" stop-color="#3d3846"/></linearGradient><linearGradient id="b" x1="12" x2="112.041" y1="60" y2="80.988" gradientUnits="userSpaceOnUse"><stop offset="0" stop-color="#77767b"/><stop offset=".384" stop-color="#9a9996"/><stop offset=".721" stop-color="#77767b"/><stop offset="1" stop-color="#68666f"/></linearGradient><path fill="url(#a)" d="M20 22h88a8 8 0 0 1 8 8v78a8 8 0 0 1-8 8H20a8 8 0 0 1-8-8V30a8 8 0 0 1 8-8m0 0"/><path fill="url(#b)" d="M20 12h88a8 8 0 0 1 8 8v80a8 8 0 0 1-8 8H20a8 8 0 0 1-8-8V20a8 8 0 0 1 8-8m0 0"/><path fill="#241f31" d="M20 14h88c3.313 0 6 2.688 6 6v80c0 3.313-2.687 6-6 6H20c-3.312 0-6-2.687-6-6V20c0-3.312 2.688-6 6-6m0 0"/><path d="M22.121 22.008v3.088h3.66l9.115 13.183-8.982 12.647h-3.922v3.066h11.551v-3.066h-3.77l7.036-9.92 6.859 9.92h-3.457v3.066h13.666v-3.066h-3.66L40.35 36.658l8.222-11.562h3.838v-3.088H40.967v3.088h3.746l-6.254 8.834-6.086-8.834h3.414v-3.088z" style="font-size:43.4473px;line-height:1.25;font-family:&quot;DejaVu Serif&quot;;-inkscape-font-specification:&quot;DejaVu Serif&quot;;baseline-shift:baseline;display:inline;overflow:visible;vector-effect:none;fill:#ff5e00;stop-color:#000"/><path d="m25.508 26.572-2.512 6.338 1.77.578.105-.146c2.536-3.549 5.331-5.07 9.219-5.07.68 0 1.08.087 1.303.25.221.162.332.438.332.931v15.813c-.022 1.418-.183 2.295-.559 2.802s-.962.708-2.039.791l-1.84.118v1.445h13.625v-1.445l-1.887-.118c-1.072-.1-1.662-.304-2.03-.804-.371-.503-.52-1.37-.52-2.79V29.593c0-.588.095-.914.279-1.078s.524-.243 1.184-.243c3.704 0 6.858 1.7 9.175 5.069l.1.144 1.95-.568-2.515-6.344z" style="font-size:38.3357px;line-height:1.25;font-family:&quot;URW Bookman L&quot;;-inkscape-font-specification:&quot;URW Bookman L&quot;;baseline-shift:baseline;display:inline;overflow:visible;vector-effect:none;fill:#0000f1;stop-color:#000"/></svg>
